assets/ios/swift/Icons.xcassets/videoCallDeclinedSolid.imageset/videoCallDeclinedSolid.svg

<svg width="24" height="24" viewBox="0 0 24 24" fill="none" xmlns="http://www.w3.org/2000/svg">
<path d="M2 8C2 5.79086 3.79086 4 6 4H16C17.1046 4 18 4.89543 18 6V10.2857L21.3492 7.41496C21.9979 6.85896 23 7.31987 23 8.17422V15.8258C23 16.6801 21.9979 17.141 21.3492 16.585L18 13.7143V18C18 19.1046 17.1046 20 16 20H6C3.79086 20 2 18.2091 2 16V8ZM12.8284 14.8284C13.0288 14.6281 13.1289 14.3924 13.1289 14.1213C13.1289 13.8503 13.0288 13.6146 12.8284 13.4142L11.4142 12L12.8284 10.5858C13.0288 10.3854 13.1289 10.1497 13.1289 9.87868C13.1289 9.60762 13.0288 9.37192 12.8284 9.17157C12.6281 8.97123 12.3924 8.87105 12.1213 8.87105C11.8503 8.87105 11.6146 8.97123 11.4142 9.17157L9.99999 10.5858L8.58578 9.17157C8.38543 8.97123 8.14973 8.87105 7.87867 8.87105C7.60762 8.87105 7.37191 8.97123 7.17157 9.17157C6.97122 9.37192 6.87105 9.60762 6.87105 9.87868C6.87105 10.1497 6.97122 10.3854 7.17157 10.5858L8.58578 12L7.17157 13.4142C6.97122 13.6146 6.87105 13.8503 6.87105 14.1213C6.87105 14.3924 6.97122 14.6281 7.17157 14.8284C7.37191 15.0288 7.60762 15.1289 7.87867 15.1289C8.14973 15.1289 8.38543 15.0288 8.58578 14.8284L9.99999 13.4142L11.4142 14.8284C11.6146 15.0288 11.8503 15.1289 12.1213 15.1289C12.3924 15.1289 12.6281 15.0288 12.8284 14.8284Z" fill="black"/>
</svg>

<svg xmlns="http://www.w3.org/2000/svg" width="24" height="24" fill="black" viewBox="0 0 24 24">
  <path d="M2 8a4 4 0 0 1 4-4h10a2 2 0 0 1 2 2v4.286l3.35-2.871a1 1 0 0 1 1.65.76v7.65a1 1 0 0 1-1.65.76L18 13.715V18a2 2 0 0 1-2 2H6a4 4 0 0 1-4-4V8Zm10.828 6.828c.2-.2.3-.436.3-.707 0-.27-.1-.506-.3-.707L11.414 12l1.414-1.414c.2-.2.3-.436.3-.707 0-.271-.1-.507-.3-.707a.969.969 0 0 0-.707-.301c-.27 0-.506.1-.707.3L10 10.587 8.586 9.172a.969.969 0 0 0-.707-.301c-.271 0-.507.1-.707.3-.2.2-.3.437-.3.708 0 .27.1.506.3.707L8.586 12l-1.414 1.414c-.2.2-.3.436-.3.707 0 .271.1.507.3.707.2.2.436.3.707.3.27 0 .506-.1.707-.3L10 13.414l1.414 1.414c.2.2.436.3.707.3.271 0 .507-.1.707-.3Z"/>
</svg>
